projects/svn/images/raif-bank.svg

<svg width="168" height="45" viewBox="0 0 168 45" fill="none" xmlns="http://www.w3.org/2000/svg">
<g clip-path="url(#clip0_896_1008)">
<path fill-rule="evenodd" clip-rule="evenodd" d="M0 0.768921H44.1546V45H0V0.768921Z" fill="black"/>
<path fill-rule="evenodd" clip-rule="evenodd" d="M1.27734 2.04724H42.8778V43.7206H1.27734V2.04724Z" fill="#EFEFEF"/>
<path fill-rule="evenodd" clip-rule="evenodd" d="M3.48431 35.3008L8.91104 40.8422L21.6257 27.9198L34.7656 41.1084L40.2717 35.6465L27.2636 22.6178L29.7643 20.1932V15.0243L31.3339 13.6923V17.7418L33.3557 19.3936L39.3932 13.3456L41.3347 14.8375C42.4789 10.6012 35.8554 0.982462 30.3761 6.31133L23.9915 12.6524L25.2954 14.2247L22.0501 17.3952L18.9118 14.3042L20.5608 12.8113L13.5654 6.04417C8.29925 1.70064 2.89929 8.30978 2.71289 14.7571L4.62759 13.1589L10.5055 19.5009L12.6066 17.7428V13.8522L13.9095 14.8375V19.927L16.4628 22.4847L3.48431 35.3008Z" fill="black"/>
<path fill-rule="evenodd" clip-rule="evenodd" d="M55.4324 6.07099V9.90797H57.0814C59.3421 9.48185 58.7303 6.23091 57.0814 6.07099H55.4324ZM50.7513 2.26082V19.634H55.4324V13.9853L59.4224 19.634H64.9552L60.0352 12.6801C65.7276 9.90893 63.5998 2.34126 57.6148 2.26178H50.7513V2.26082ZM72.4028 10.9469C73.9456 10.9469 75.195 12.119 75.195 13.5582C75.195 14.9965 73.9447 16.1695 72.4028 16.1695C70.8867 16.1695 69.6364 14.9965 69.6364 13.5582C69.6364 12.119 70.8867 10.9469 72.4028 10.9469ZM71.4182 7.10996C72.6953 7.10996 73.8921 7.53607 74.8757 8.2284V7.56288H79.4507L79.4775 19.633H74.849L74.8757 18.8871C73.8921 19.5794 72.6953 19.9797 71.4182 19.9797C68.0132 19.9797 65.221 17.1022 65.221 13.5582C65.221 10.0143 68.0142 7.10996 71.4182 7.10996ZM81.8988 7.56288H86.7663V19.633H81.8988V7.56288ZM84.345 0.661685C85.7559 0.661685 86.8992 1.83375 86.8992 3.24616C86.8992 4.65858 85.7559 5.83064 84.345 5.83064C82.9092 5.83064 81.765 4.65762 81.765 3.24616C81.766 1.83471 82.9092 0.661685 84.345 0.661685ZM121.292 7.56288H126.16V19.633H121.292V7.56288ZM123.712 0.661685C125.149 0.661685 126.292 1.83375 126.292 3.24616C126.292 4.65858 125.149 5.83064 123.712 5.83064C122.302 5.83064 121.159 4.65762 121.159 3.24616C121.159 1.83471 122.302 0.661685 123.712 0.661685ZM87.6706 7.56288V11.3999H89.3464V19.633H94.0552V11.3999H98.4705V19.633H103.338V11.3472H106.37V7.61651H103.204V4.92574C103.125 3.9404 105.439 3.54014 106.237 4.33971V0.39548C101.768 -1.01693 98.1513 1.51488 98.1771 5.43134V7.56288H94.0275V4.92574C93.9739 3.9404 95.9966 3.54014 97.1657 4.33971V0.39548C93.2818 -0.749772 89.1332 1.14143 89.1599 5.40452V7.53607L87.6706 7.56288ZM113.312 19.9797C117.488 19.9529 119.03 18.2216 119.936 15.6898H115.707C113.791 18.1411 110.998 16.3562 111.132 14.3578H120.069C120.069 9.45504 117.462 7.13677 113.313 7.13677C109.164 7.13677 106.558 10.0679 106.558 13.6387C106.558 17.2094 109.589 20.0065 113.312 19.9797ZM111.742 11.5071C111.796 10.0411 114.988 10.0411 115.2 11.5071H111.742ZM146.455 19.9797C150.657 19.9529 152.201 18.2216 153.104 15.6898H148.848C146.933 18.1411 144.14 16.3562 144.274 14.3578H153.212C153.212 9.45504 150.632 7.13677 146.456 7.13677C142.306 7.13677 139.7 10.0679 139.7 13.6387C139.7 17.2094 142.73 20.0065 146.455 19.9797ZM144.885 11.5071C144.938 10.0411 148.13 10.0411 148.343 11.5071H144.885ZM138.422 7.80324L136.985 10.7344C135.177 10.1742 133.421 10.2814 133.474 10.787C133.528 11.1068 133.235 11.6661 136.054 12.0663C140.256 12.7318 139.911 20.5657 132.862 19.9797C130.921 19.8466 129.351 19.34 128.048 18.5673L129.618 15.4226C131.826 16.5152 133.953 17.1549 134.113 16.0623C134.299 14.7035 131.798 15.1832 130.282 14.037C127.57 12.3584 129.111 7.16262 133.555 7.109C135.123 7.00366 136.746 7.26987 138.422 7.80324ZM155.073 7.56288V19.633H159.622V12.2521C159.755 10.4136 163.372 10.0937 163.399 12.2521V19.633H168V12.0663C167.894 7.83005 163.452 5.77798 159.435 8.46875V7.56288H155.073ZM53.4374 27.014L50.4053 44.9196H58.997C64.8224 44.9196 67.216 37.6727 63.0664 35.1945C66.6042 31.9167 64.7956 26.9881 60.992 26.9345L53.4374 27.014ZM56.9217 37.6985L56.31 40.6565H58.3049C60.5657 40.7628 60.2999 37.6985 58.997 37.6985H56.9217ZM57.9321 31.2771L57.4274 33.6758L58.0392 33.7016C59.8746 33.8079 60.9385 31.2771 58.7303 31.2771H57.9321ZM65.0078 44.9464H70.2214L71.791 41.8017H77.6957L78.5732 45H83.3872L79.2117 27.1203H74.2907L65.0078 44.9464ZM73.4935 38.0452H76.7388L75.7016 33.3282L73.4935 38.0452ZM85.0371 45H89.852L91.0746 33.7821L97.9639 44.9464H103.124L105.279 27.013H100.465L99.1081 38.2309L92.2179 26.9594H87.2443L85.0371 45ZM108.737 26.9604L105.359 44.9464H110.44L111.796 38.2309L116.344 44.9464H123.02L116.504 35.5134L124.83 26.9335H118.366L112.674 33.2746L113.578 26.9335L108.737 26.9604Z" fill="black"/>
</g>
<defs>
<clipPath id="clip0_896_1008">
<rect width="168" height="45" fill="white"/>
</clipPath>
</defs>
</svg>

<svg width="168" height="45" fill="none" xmlns="http://www.w3.org/2000/svg"><g clip-path="url(#clip0_896_1008)" fill-rule="evenodd" clip-rule="evenodd"><path d="M0 .769h44.155V45H0V.769z" fill="#000"/><path d="M1.277 2.047h41.6v41.674h-41.6V2.047z" fill="#EFEFEF"/><path d="M3.484 35.3l5.427 5.542L21.626 27.92l13.14 13.188 5.506-5.461-13.008-13.03 2.5-2.424v-5.169l1.57-1.332v4.05l2.022 1.652 6.037-6.048 1.942 1.492C42.479 10.6 35.855.982 30.376 6.31l-6.385 6.341 1.304 1.573-3.245 3.17-3.138-3.09 1.649-1.494-6.996-6.767C8.3 1.701 2.9 8.31 2.713 14.757l1.915-1.598 5.877 6.342 2.102-1.758v-3.89l1.303.985v5.089l2.553 2.558L3.484 35.3zM55.432 6.071v3.837h1.65c2.26-.426 1.648-3.677 0-3.837h-1.65zm-4.68-3.81v17.373h4.68v-5.649l3.99 5.649h5.533l-4.92-6.954c5.693-2.77 3.565-10.339-2.42-10.418H50.75V2.26zm21.65 8.686c1.544 0 2.793 1.172 2.793 2.611 0 1.438-1.25 2.611-2.792 2.611-1.516 0-2.767-1.173-2.767-2.61 0-1.44 1.25-2.612 2.767-2.612zm-.984-3.837a6.02 6.02 0 013.458 1.118v-.665h4.575l.027 12.07h-4.629l.027-.746a5.994 5.994 0 01-3.458 1.093c-3.405 0-6.197-2.878-6.197-6.422 0-3.544 2.793-6.448 6.197-6.448zm10.48.453h4.868v12.07H81.9V7.563zM84.346.662c1.41 0 2.554 1.172 2.554 2.584 0 1.413-1.143 2.585-2.554 2.585a2.585 2.585 0 010-5.17zm36.947 6.9h4.868v12.071h-4.868V7.563zm2.42-6.9a2.584 2.584 0 010 5.169c-1.41 0-2.553-1.173-2.553-2.585 0-1.411 1.143-2.584 2.553-2.584zm-36.041 6.9V11.4h1.675v8.233h4.71V11.4h4.415v8.233h4.867v-8.286h3.032v-3.73h-3.166V4.926c-.079-.986 2.235-1.386 3.033-.586V.395c-4.469-1.412-8.086 1.12-8.06 5.036v2.132h-4.15V4.926c-.053-.986 1.97-1.386 3.139-.586V.395c-3.884-1.145-8.033.746-8.006 5.01v2.131l-1.49.027zm25.641 12.418c4.176-.027 5.718-1.758 6.624-4.29h-4.229c-1.916 2.451-4.709.666-4.575-1.332h8.937c0-4.903-2.607-7.221-6.756-7.221s-6.755 2.93-6.755 6.502c0 3.57 3.031 6.367 6.754 6.34zm-1.57-8.473c.054-1.466 3.246-1.466 3.458 0h-3.458zm34.713 8.473c4.202-.027 5.746-1.758 6.649-4.29h-4.256c-1.915 2.451-4.708.666-4.574-1.332h8.938c0-4.903-2.58-7.221-6.756-7.221-4.15 0-6.756 2.93-6.756 6.502 0 3.57 3.03 6.367 6.755 6.34zm-1.57-8.473c.053-1.466 3.245-1.466 3.458 0h-3.458zm-6.463-3.704l-1.437 2.931c-1.808-.56-3.564-.453-3.511.053.054.32-.239.88 2.58 1.28 4.202.665 3.857 8.499-3.192 7.913-1.941-.133-3.511-.64-4.814-1.413l1.57-3.144c2.208 1.092 4.335 1.732 4.495.64.186-1.36-2.315-.88-3.831-2.026-2.712-1.679-1.171-6.874 3.273-6.928 1.568-.105 3.191.16 4.867.694zm16.651-.24v12.07h4.549v-7.38c.133-1.84 3.75-2.16 3.777 0v7.38h4.6v-7.567c-.106-4.236-4.548-6.288-8.565-3.597v-.906h-4.362zM53.437 27.014L50.405 44.92h8.592c5.825 0 8.219-7.247 4.07-9.726 3.537-3.277 1.729-8.206-2.075-8.26l-7.555.08zm3.485 10.685l-.612 2.958h1.995c2.26.106 1.995-2.958.692-2.958h-2.075zm1.01-6.422l-.505 2.399.612.026c1.836.106 2.9-2.425.691-2.425h-.798zm7.076 13.67h5.213l1.57-3.145h5.905L78.573 45h4.814l-4.175-17.88H74.29l-9.283 17.826zm8.486-6.902h3.245l-1.037-4.717-2.209 4.717zM85.036 45h4.815l1.223-11.218 6.889 11.164h5.16l2.155-17.933h-4.814l-1.357 11.218-6.89-11.272h-4.974L85.037 45zm23.7-18.04l-3.378 17.986h5.081l1.356-6.715 4.548 6.715h6.676l-6.516-9.433 8.326-8.58h-6.464l-5.692 6.342.904-6.341-4.841.026z" fill="#000"/></g><defs><clipPath id="clip0_896_1008"><path fill="#fff" d="M0 0h168v45H0z"/></clipPath></defs></svg>
